public/assets/img/vector6.svg

<svg width="77" height="54" viewBox="0 0 77 54" fill="none" xmlns="http://www.w3.org/2000/svg">
<path d="M3.85 54H37.2167C37.557 54 37.8834 53.8645 38.1241 53.6234C38.3648 53.3823 38.5 53.0553 38.5 52.7143V47.8163L44.9541 31.4619C45.1595 30.9732 45.2411 30.4413 45.1916 29.9134C45.142 29.3855 44.9629 28.8782 44.6702 28.4364C44.3775 27.9947 43.9803 27.6324 43.5139 27.3818C43.0476 27.1312 42.5266 27 41.9974 27H22.2259C21.4723 26.9995 20.7351 27.2207 20.106 27.6363C19.4768 28.0519 18.9834 28.6435 18.687 29.3377C18.6826 29.3482 18.6782 29.3587 18.674 29.3693L11.9624 46.2857H1.28333C0.942973 46.2857 0.616554 46.4212 0.375883 46.6623C0.135212 46.9034 3.40355e-06 47.2304 0 47.5714V50.1429C0.00115402 51.1655 0.407148 52.1459 1.12891 52.869C1.85068 53.5921 2.82927 53.9988 3.85 54ZM35.9333 51.4286H25.6667C25.3264 51.4282 25.0002 51.2926 24.7596 51.0516C24.5191 50.8105 24.3837 50.4837 24.3833 50.1429V48.8571H35.9333V51.4286ZM21.0517 30.3378C21.1521 30.1097 21.3165 29.9158 21.525 29.7797C21.7335 29.6436 21.977 29.5712 22.2259 29.5714H41.9974C42.1035 29.5714 42.2081 29.5978 42.3016 29.6483C42.395 29.6987 42.4746 29.7716 42.533 29.8604C42.5915 29.9492 42.627 30.0512 42.6364 30.1571C42.6458 30.2631 42.6289 30.3698 42.587 30.4675C42.5823 30.4787 42.5776 30.49 42.5732 30.5013L36.3441 46.2857H14.7245L21.0517 30.3378ZM2.56667 48.8571H21.8167V50.1429C21.8165 50.5809 21.8912 51.0158 22.0374 51.4286H3.85C3.50976 51.4282 3.18356 51.2926 2.94298 51.0516C2.70239 50.8105 2.56706 50.4837 2.56667 50.1429V48.8571Z" fill="#90A1AE"/>
<path d="M41.0667 51.4286V54H62.8833C63.2237 54 63.5501 53.8645 63.7908 53.6234C64.0315 53.3823 64.1667 53.0553 64.1667 52.7143V38.5714H73.15C74.1707 38.5703 75.1493 38.1635 75.8711 37.4404C76.5928 36.7173 76.9988 35.7369 77 34.7143V3.85714C76.9988 2.83452 76.5928 1.85411 75.8711 1.13101C75.1493 0.407904 74.1707 0.00115616 73.15 0H30.8C29.7793 0.00115616 28.8007 0.407904 28.0789 1.13101C27.3571 1.85411 26.9512 2.83452 26.95 3.85714V24.4286H29.5167V3.85714C29.5171 3.51627 29.6524 3.18947 29.893 2.94844C30.1336 2.7074 30.4598 2.57182 30.8 2.57143H73.15C73.4902 2.57182 73.8164 2.7074 74.057 2.94844C74.2976 3.18947 74.4329 3.51627 74.4333 3.85714V34.7143C74.4329 35.0552 74.2976 35.382 74.057 35.623C73.8164 35.864 73.4902 35.9996 73.15 36H44.9167V38.5714H47.4833V47.5714H41.0667V50.1429H59.0333C59.3737 50.1429 59.7001 50.0074 59.9408 49.7663C60.1815 49.5252 60.3167 49.1981 60.3167 48.8571V38.5714H61.6V51.4286H41.0667ZM57.75 47.5714H50.05V38.5714H52.6167V41.1429C52.6167 41.4838 52.7519 41.8109 52.9925 42.052C53.2332 42.2931 53.5596 42.4286 53.9 42.4286C54.2404 42.4286 54.5668 42.2931 54.8075 42.052C55.0481 41.8109 55.1833 41.4838 55.1833 41.1429V38.5714H57.75V47.5714Z" fill="#90A1AE"/>
<path d="M23.1 33.4286C23.8088 33.4286 24.3833 32.8529 24.3833 32.1429C24.3833 31.4328 23.8088 30.8571 23.1 30.8571C22.3912 30.8571 21.8167 31.4328 21.8167 32.1429C21.8167 32.8529 22.3912 33.4286 23.1 33.4286Z" fill="#90A1AE"/>
<path d="M26.95 33.4286C27.6588 33.4286 28.2333 32.8529 28.2333 32.1429C28.2333 31.4328 27.6588 30.8571 26.95 30.8571C26.2412 30.8571 25.6667 31.4328 25.6667 32.1429C25.6667 32.8529 26.2412 33.4286 26.95 33.4286Z" fill="#90A1AE"/>
<path d="M32.0833 6.42857C32.7921 6.42857 33.3667 5.85294 33.3667 5.14286C33.3667 4.43278 32.7921 3.85714 32.0833 3.85714C31.3746 3.85714 30.8 4.43278 30.8 5.14286C30.8 5.85294 31.3746 6.42857 32.0833 6.42857Z" fill="#90A1AE"/>
<path d="M35.9333 6.42857C36.6421 6.42857 37.2167 5.85294 37.2167 5.14286C37.2167 4.43278 36.6421 3.85714 35.9333 3.85714C35.2246 3.85714 34.65 4.43278 34.65 5.14286C34.65 5.85294 35.2246 6.42857 35.9333 6.42857Z" fill="#90A1AE"/>
<path d="M39.7833 6.42857C40.4921 6.42857 41.0667 5.85294 41.0667 5.14286C41.0667 4.43278 40.4921 3.85714 39.7833 3.85714C39.0746 3.85714 38.5 4.43278 38.5 5.14286C38.5 5.85294 39.0746 6.42857 39.7833 6.42857Z" fill="#90A1AE"/>
<path d="M49.1425 25.3377L52.9925 29.1948L54.8075 27.3766L51.8649 24.4286L54.8075 21.4805L52.9925 19.6623L49.1425 23.5195C48.9018 23.7606 48.7666 24.0876 48.7666 24.4286C48.7666 24.7696 48.9018 25.0966 49.1425 25.3377Z" fill="#90A1AE"/>
<path d="M67.6408 29.1948L71.4908 25.3377C71.7315 25.0966 71.8667 24.7696 71.8667 24.4286C71.8667 24.0876 71.7315 23.7606 71.4908 23.5195L67.6408 19.6623L65.8258 21.4805L68.7685 24.4286L65.8258 27.3766L67.6408 29.1948Z" fill="#90A1AE"/>
<path d="M55.286 32.9328L62.9876 14.9357L65.3465 15.9489L57.6449 33.946L55.286 32.9328Z" fill="#90A1AE"/>
<path d="M32.0833 10.2857H34.65V12.8571H32.0833V10.2857Z" fill="#90A1AE"/>
<path d="M37.2167 10.2857H46.2V12.8571H37.2167V10.2857Z" fill="#90A1AE"/>
<path d="M32.0833 15.4286H34.65V18H32.0833V15.4286Z" fill="#90A1AE"/>
<path d="M37.2167 15.4286H42.35V18H37.2167V15.4286Z" fill="#90A1AE"/>
<path d="M32.0833 20.5714H34.65V23.1429H32.0833V20.5714Z" fill="#90A1AE"/>
<path d="M37.2167 20.5714H44.9167V23.1429H37.2167V20.5714Z" fill="#90A1AE"/>
<path d="M48.7667 10.2857H53.9V12.8571H48.7667V10.2857Z" fill="#90A1AE"/>
</svg>

<svg width="77" height="54" fill="none" xmlns="http://www.w3.org/2000/svg"><path d="M3.85 54h33.367a1.282 1.282 0 0 0 1.283-1.286v-4.898l6.454-16.354a3.22 3.22 0 0 0-1.44-4.08A3.203 3.203 0 0 0 41.997 27H22.226a3.841 3.841 0 0 0-3.552 2.37l-6.712 16.916H1.283A1.282 1.282 0 0 0 0 47.57v2.572a3.865 3.865 0 0 0 1.129 2.726c.722.723 1.7 1.13 2.721 1.131Zm32.083-2.571H25.667a1.284 1.284 0 0 1-1.284-1.286v-1.286h11.55v2.572ZM21.052 30.338a1.284 1.284 0 0 1 1.174-.767h19.771a.64.64 0 0 1 .59.896l-.014.034-6.229 15.785h-21.62l6.328-15.948ZM2.567 48.858h19.25v1.285c0 .438.074.873.22 1.286H3.85a1.284 1.284 0 0 1-1.283-1.286v-1.286Z" fill="#90A1AE"/><path d="M41.067 51.429V54h21.816a1.282 1.282 0 0 0 1.284-1.286V38.571h8.983a3.85 3.85 0 0 0 2.721-1.13A3.866 3.866 0 0 0 77 34.713V3.857a3.866 3.866 0 0 0-1.129-2.726A3.85 3.85 0 0 0 73.15 0H30.8a3.85 3.85 0 0 0-2.721 1.131 3.865 3.865 0 0 0-1.129 2.726V24.43h2.567V3.857A1.288 1.288 0 0 1 30.8 2.571h42.35a1.284 1.284 0 0 1 1.283 1.286v30.857A1.288 1.288 0 0 1 73.15 36H44.917v2.571h2.566v9h-6.416v2.572h17.966a1.282 1.282 0 0 0 1.284-1.286V38.571H61.6V51.43H41.067ZM57.75 47.57h-7.7v-9h2.567v2.572a1.287 1.287 0 0 0 1.283 1.286 1.282 1.282 0 0 0 1.283-1.286V38.57h2.567v9ZM23.1 33.429c.709 0 1.283-.576 1.283-1.286a1.285 1.285 0 1 0-1.283 1.286ZM26.95 33.429c.709 0 1.283-.576 1.283-1.286a1.285 1.285 0 1 0-1.283 1.286Z" fill="#90A1AE"/><path d="M32.083 6.429c.71 0 1.284-.576 1.284-1.286a1.285 1.285 0 1 0-1.284 1.286ZM35.933 6.429c.71 0 1.284-.576 1.284-1.286a1.285 1.285 0 1 0-1.284 1.286ZM39.783 6.429c.71 0 1.284-.576 1.284-1.286a1.285 1.285 0 1 0-1.284 1.286ZM49.142 25.338l3.85 3.857 1.816-1.818-2.943-2.948 2.942-2.948-1.815-1.819-3.85 3.858a1.287 1.287 0 0 0 0 1.818ZM67.64 29.195l3.85-3.857a1.287 1.287 0 0 0 0-1.819l-3.85-3.857-1.814 1.819 2.943 2.948-2.943 2.948 1.815 1.818ZM55.286 32.933l7.702-17.997 2.359 1.013-7.702 17.997-2.359-1.013ZM32.083 10.286h2.567v2.571h-2.567v-2.571ZM37.217 10.286H46.2v2.571h-8.983v-2.571ZM32.083 15.429h2.567V18h-2.567v-2.571ZM37.217 15.429h5.133V18h-5.133v-2.571ZM32.083 20.571h2.567v2.572h-2.567V20.57ZM37.217 20.571h7.7v2.572h-7.7V20.57ZM48.767 10.286H53.9v2.571h-5.133v-2.571Z" fill="#90A1AE"/></svg>
